icons/rewind.svg

<?xml version="1.0" standalone="no"?><!-- Generator: Gravit.io --><svg xmlns="http://www.w3.org/2000/svg" xmlns:xlink="http://www.w3.org/1999/xlink" width="96" height="96"><path d=" M 51.94372075915132 53.519615242270675 L 66.94372075915132 62.21961524227066 L 82.54372075915131 71.21961524227066 L 84.54372075915131 71.81961524227067 C 85.04372075915131 72.01961524227067 85.64372075915132 72.01961524227067 86.24372075915133 72.01961524227067 C 87.74372075915132 71.81961524227067 89.24372075915132 71.01961524227067 90.24372075915132 69.71961524227066 C 91.24372075915132 68.51961524227067 91.74372075915132 66.91961524227067 91.64372075915132 65.31961524227067 L 91.64372075915132 48.01961524227067 L 91.64372075915132 30.61961524227067 C 91.74372075915132 29.019615242270667 91.24372075915132 27.519615242270667 90.24372075915132 26.21961524227067 C 89.24372075915132 25.019615242270667 87.74372075915132 24.21961524227067 86.24372075915133 24.019615242270667 C 85.64372075915132 23.919615242270666 85.04372075915131 24.019615242270667 84.54372075915131 24.21961524227067 L 82.54372075915131 24.819615242270668 L 66.94372075915132 33.81961524227067 L 51.94372075915132 42.419615242270666 C 49.843720759151324 43.51961524227067 48.44372075915132 45.61961524227067 48.343720759151324 48.01961524227067 C 48.44372075915132 50.31961524227067 49.843720759151324 52.519615242270675 51.94372075915132 53.519615242270675 Z  M 83.64372075915132 33.419615242270666 L 70.94372075915132 40.71961524227066 L 58.343720759151324 48.01961524227067 L 70.94372075915132 55.31961524227067 L 83.64372075915132 62.61961524227067 L 83.64372075915132 48.01961524227067 L 83.64372075915132 33.419615242270666 Z  M 3.9437207591513257 53.51961524227067 L 18.943720759151326 62.21961524227066 L 34.54372075915133 71.21961524227066 L 36.54372075915133 71.81961524227066 C 37.04372075915133 72.01961524227067 37.64372075915133 72.01961524227067 38.24372075915133 72.01961524227067 C 39.74372075915133 71.81961524227066 41.24372075915133 71.01961524227067 42.24372075915133 69.71961524227066 C 43.24372075915133 68.51961524227067 43.74372075915133 66.91961524227067 43.64372075915133 65.31961524227066 L 43.64372075915133 48.01961524227066 L 43.64372075915133 30.619615242270665 C 43.74372075915133 29.019615242270664 43.24372075915133 27.519615242270664 42.24372075915133 26.219615242270663 C 41.24372075915133 25.019615242270664 39.74372075915133 24.219615242270663 38.24372075915133 24.019615242270664 C 37.64372075915133 23.919615242270666 37.04372075915133 24.019615242270664 36.54372075915133 24.219615242270663 L 34.54372075915133 24.819615242270665 L 18.943720759151326 33.819615242270665 L 3.9437207591513257 42.419615242270666 C 1.8437207591513314 43.51961524227066 0.4437207591513257 45.61961524227067 0.3437207591513314 48.01961524227066 C 0.4437207591513257 50.319615242270665 1.8437207591513314 52.51961524227067 3.9437207591513257 53.51961524227067 Z  M 35.64372075915133 33.419615242270666 L 22.94372075915133 40.71961524227066 L 10.343720759151331 48.01961524227066 L 22.94372075915133 55.319615242270665 L 35.64372075915133 62.61961524227066 L 35.64372075915133 48.01961524227066 L 35.64372075915133 33.419615242270666 Z " fill-rule="evenodd" fill="#454545" stroke="none"/><mask id="_mask_TTugfYX1QvapiKSuG4OLiJrwG75dzcyA"><path d=" M 51.94372075915132 53.519615242270675 L 66.94372075915132 62.21961524227066 L 82.54372075915131 71.21961524227066 L 84.54372075915131 71.81961524227067 C 85.04372075915131 72.01961524227067 85.64372075915132 72.01961524227067 86.24372075915133 72.01961524227067 C 87.74372075915132 71.81961524227067 89.24372075915132 71.01961524227067 90.24372075915132 69.71961524227066 C 91.24372075915132 68.51961524227067 91.74372075915132 66.91961524227067 91.64372075915132 65.31961524227067 L 91.64372075915132 48.01961524227067 L 91.64372075915132 30.61961524227067 C 91.74372075915132 29.019615242270667 91.24372075915132 27.519615242270667 90.24372075915132 26.21961524227067 C 89.24372075915132 25.019615242270667 87.74372075915132 24.21961524227067 86.24372075915133 24.019615242270667 C 85.64372075915132 23.919615242270666 85.04372075915131 24.019615242270667 84.54372075915131 24.21961524227067 L 82.54372075915131 24.819615242270668 L 66.94372075915132 33.81961524227067 L 51.94372075915132 42.419615242270666 C 49.843720759151324 43.51961524227067 48.44372075915132 45.61961524227067 48.343720759151324 48.01961524227067 C 48.44372075915132 50.31961524227067 49.843720759151324 52.519615242270675 51.94372075915132 53.519615242270675 Z  M 83.64372075915132 33.419615242270666 L 70.94372075915132 40.71961524227066 L 58.343720759151324 48.01961524227067 L 70.94372075915132 55.31961524227067 L 83.64372075915132 62.61961524227067 L 83.64372075915132 48.01961524227067 L 83.64372075915132 33.419615242270666 Z  M 3.9437207591513257 53.51961524227067 L 18.943720759151326 62.21961524227066 L 34.54372075915133 71.21961524227066 L 36.54372075915133 71.81961524227066 C 37.04372075915133 72.01961524227067 37.64372075915133 72.01961524227067 38.24372075915133 72.01961524227067 C 39.74372075915133 71.81961524227066 41.24372075915133 71.01961524227067 42.24372075915133 69.71961524227066 C 43.24372075915133 68.51961524227067 43.74372075915133 66.91961524227067 43.64372075915133 65.31961524227066 L 43.64372075915133 48.01961524227066 L 43.64372075915133 30.619615242270665 C 43.74372075915133 29.019615242270664 43.24372075915133 27.519615242270664 42.24372075915133 26.219615242270663 C 41.24372075915133 25.019615242270664 39.74372075915133 24.219615242270663 38.24372075915133 24.019615242270664 C 37.64372075915133 23.919615242270666 37.04372075915133 24.019615242270664 36.54372075915133 24.219615242270663 L 34.54372075915133 24.819615242270665 L 18.943720759151326 33.819615242270665 L 3.9437207591513257 42.419615242270666 C 1.8437207591513314 43.51961524227066 0.4437207591513257 45.61961524227067 0.3437207591513314 48.01961524227066 C 0.4437207591513257 50.319615242270665 1.8437207591513314 52.51961524227067 3.9437207591513257 53.51961524227067 Z  M 35.64372075915133 33.419615242270666 L 22.94372075915133 40.71961524227066 L 10.343720759151331 48.01961524227066 L 22.94372075915133 55.319615242270665 L 35.64372075915133 62.61961524227066 L 35.64372075915133 48.01961524227066 L 35.64372075915133 33.419615242270666 Z " fill-rule="evenodd" fill="white" stroke="none"/></mask><path d=" M 51.94372075915132 53.519615242270675 L 66.94372075915132 62.21961524227066 L 82.54372075915131 71.21961524227066 L 84.54372075915131 71.81961524227067 C 85.04372075915131 72.01961524227067 85.64372075915132 72.01961524227067 86.24372075915133 72.01961524227067 C 87.74372075915132 71.81961524227067 89.24372075915132 71.01961524227067 90.24372075915132 69.71961524227066 C 91.24372075915132 68.51961524227067 91.74372075915132 66.91961524227067 91.64372075915132 65.31961524227067 L 91.64372075915132 48.01961524227067 L 91.64372075915132 30.61961524227067 C 91.74372075915132 29.019615242270667 91.24372075915132 27.519615242270667 90.24372075915132 26.21961524227067 C 89.24372075915132 25.019615242270667 87.74372075915132 24.21961524227067 86.24372075915133 24.019615242270667 C 85.64372075915132 23.919615242270666 85.04372075915131 24.019615242270667 84.54372075915131 24.21961524227067 L 82.54372075915131 24.819615242270668 L 66.94372075915132 33.81961524227067 L 51.94372075915132 42.419615242270666 C 49.843720759151324 43.51961524227067 48.44372075915132 45.61961524227067 48.343720759151324 48.01961524227067 C 48.44372075915132 50.31961524227067 49.843720759151324 52.519615242270675 51.94372075915132 53.519615242270675 Z  M 83.64372075915132 33.419615242270666 L 70.94372075915132 40.71961524227066 L 58.343720759151324 48.01961524227067 L 70.94372075915132 55.31961524227067 L 83.64372075915132 62.61961524227067 L 83.64372075915132 48.01961524227067 L 83.64372075915132 33.419615242270666 Z  M 3.9437207591513257 53.51961524227067 L 18.943720759151326 62.21961524227066 L 34.54372075915133 71.21961524227066 L 36.54372075915133 71.81961524227066 C 37.04372075915133 72.01961524227067 37.64372075915133 72.01961524227067 38.24372075915133 72.01961524227067 C 39.74372075915133 71.81961524227066 41.24372075915133 71.01961524227067 42.24372075915133 69.71961524227066 C 43.24372075915133 68.51961524227067 43.74372075915133 66.91961524227067 43.64372075915133 65.31961524227066 L 43.64372075915133 48.01961524227066 L 43.64372075915133 30.619615242270665 C 43.74372075915133 29.019615242270664 43.24372075915133 27.519615242270664 42.24372075915133 26.219615242270663 C 41.24372075915133 25.019615242270664 39.74372075915133 24.219615242270663 38.24372075915133 24.019615242270664 C 37.64372075915133 23.919615242270666 37.04372075915133 24.019615242270664 36.54372075915133 24.219615242270663 L 34.54372075915133 24.819615242270665 L 18.943720759151326 33.819615242270665 L 3.9437207591513257 42.419615242270666 C 1.8437207591513314 43.51961524227066 0.4437207591513257 45.61961524227067 0.3437207591513314 48.01961524227066 C 0.4437207591513257 50.319615242270665 1.8437207591513314 52.51961524227067 3.9437207591513257 53.51961524227067 Z  M 35.64372075915133 33.419615242270666 L 22.94372075915133 40.71961524227066 L 10.343720759151331 48.01961524227066 L 22.94372075915133 55.319615242270665 L 35.64372075915133 62.61961524227066 L 35.64372075915133 48.01961524227066 L 35.64372075915133 33.419615242270666 Z " fill-rule="evenodd" fill="none" stroke="none" stroke-width="16" mask="url(#_mask_TTugfYX1QvapiKSuG4OLiJrwG75dzcyA)"/></svg>

<svg xmlns="http://www.w3.org/2000/svg" width="96" height="96"><path d="M51.944 53.52l15 8.7 15.6 9 2 .6c.5.2 1.1.2 1.7.2 1.5-.2 3-1 4-2.3 1-1.2 1.5-2.8 1.4-4.4v-34.7c.1-1.6-.4-3.1-1.4-4.4-1-1.2-2.5-2-4-2.2-.6-.1-1.2 0-1.7.2l-2 .6-15.6 9-15 8.6c-2.1 1.1-3.5 3.2-3.6 5.6.1 2.3 1.5 4.5 3.6 5.5zm31.7-20.1l-12.7 7.3-12.6 7.3 12.6 7.3 12.7 7.3v-29.2zm-79.7 20.1l15 8.7 15.6 9 2 .6c.5.2 1.1.2 1.7.2 1.5-.2 3-1 4-2.3 1-1.2 1.5-2.8 1.4-4.4v-34.7c.1-1.6-.4-3.1-1.4-4.4-1-1.2-2.5-2-4-2.2-.6-.1-1.2 0-1.7.2l-2 .6-15.6 9-15 8.6c-2.1 1.1-3.5 3.2-3.6 5.6.1 2.3 1.5 4.5 3.6 5.5zm31.7-20.1l-12.7 7.3-12.6 7.3 12.6 7.3 12.7 7.3v-29.2z" fill-rule="evenodd" fill="#454545"/></svg>
